src/main/resources/icons/plugins/clion/CMakeTarget_Utility.svg

<?xml version="1.0" encoding="UTF-8" standalone="no"?>
<svg
   xmlns:dc="http://purl.org/dc/elements/1.1/"
   xmlns:cc="http://creativecommons.org/ns#"
   xmlns:rdf="http://www.w3.org/1999/02/22-rdf-syntax-ns#"
   xmlns:svg="http://www.w3.org/2000/svg"
   xmlns="http://www.w3.org/2000/svg"
   xmlns:sodipodi="http://sodipodi.sourceforge.net/DTD/sodipodi-0.dtd"
   xmlns:inkscape="http://www.inkscape.org/namespaces/inkscape"
   version="1.1"
   width="16px"
   height="16px"
   viewBox="0 0 24 24"
   id="svg4"
   sodipodi:docname="CMakeTarget_Utility.svg"
   inkscape:version="0.92.3 (unknown)">
  <metadata
     id="metadata10">
    <rdf:RDF>
      <cc:Work
         rdf:about="">
        <dc:format>image/svg+xml</dc:format>
        <dc:type
           rdf:resource="http://purl.org/dc/dcmitype/StillImage" />
      </cc:Work>
    </rdf:RDF>
  </metadata>
  <defs
     id="defs8" />
  <sodipodi:namedview
     pagecolor="#ffffff"
     bordercolor="#666666"
     borderopacity="1"
     objecttolerance="10"
     gridtolerance="10"
     guidetolerance="10"
     inkscape:pageopacity="0"
     inkscape:pageshadow="2"
     inkscape:window-width="863"
     inkscape:window-height="491"
     id="namedview6"
     showgrid="false"
     inkscape:zoom="14.75"
     inkscape:cx="8"
     inkscape:cy="8"
     inkscape:window-x="67"
     inkscape:window-y="27"
     inkscape:window-maximized="0"
     inkscape:current-layer="svg4" />
  <path
     inkscape:connector-curvature="0"
     style="fill:#c792ea;fill-opacity:1;stroke-width:1"
     d="M 9.9993353,2 C 9.7493354,2 9.5412884,2.1789453 9.5012885,2.4189452 L 9.1292181,5.0703125 C 8.4992182,5.3203124 7.9617182,5.6588281 7.4417181,6.048828 L 4.9514837,5.0498047 c -0.2199999,-0.09 -0.4923046,-2.735e-4 -0.6123046,0.2197266 L 2.3411323,8.7294921 c -0.1300005,0.2200001 -0.069883,0.488672 0.120117,0.638672 L 4.5706243,11 c -0.040001,0.34 -0.070312,0.669024 -0.070312,0.999024 0,0.329999 0.030312,0.649726 0.070312,0.969726 l -2.1093749,1.661133 c -0.19,0.15 -0.2501172,0.418672 -0.120117,0.638672 l 1.9980468,3.459961 c 0.12,0.22 0.3923048,0.299727 0.6123046,0.219726 l 2.4902345,-1.007811 c 0.52,0.399999 1.0575,0.737304 1.6875,0.987304 l 0.3720703,2.651367 c 0.04,0.24 0.2480469,0.418946 0.4980468,0.418946 h 4.0019536 c 0.25,0 0.458047,-0.178946 0.498047,-0.418946 l 0.37207,-2.651367 c 0.629999,-0.260001 1.1675,-0.587305 1.687499,-0.987304 l 2.490236,1.007811 c 0.219999,0.08 0.492305,2.74e-4 0.612304,-0.219726 l 1.998047,-3.459961 c 0.12,-0.22 0.06988,-0.488672 -0.12012,-0.638672 L 19.43,12.96875 c 0.04001,-0.32 0.07031,-0.639727 0.07031,-0.969726 C 19.50031,11.669024 19.46999,11.34 19.43,11 l 2.109375,-1.6318359 c 0.19,-0.1500001 0.240117,-0.4186719 0.12012,-0.6386719 L 19.661445,5.2695313 C 19.541446,5.0495312 19.26914,4.9598047 19.049141,5.0498047 L 16.558905,6.048828 C 16.038906,5.6588281 15.501407,5.3203124 14.871406,5.0703125 L 14.499336,2.4189452 C 14.459336,2.1789453 14.251289,2 14.001289,2 Z M 9.3020697,8.6035156 c 0.1584588,0.01173 0.3261173,0.036912 0.4980468,0.076171 1.1931375,0.2725967 2.0077945,0.8132418 2.2500005,0.9462896 0.24205,-0.1331672 1.059793,-0.6738459 2.25293,-0.9462887 2.750837,-0.6281592 3.807675,2.4063335 2.185547,4.6933595 -1.449168,1.664075 -2.953784,2.428473 -4.438477,3.413085 C 10.565385,15.80152 9.0607698,15.03712 7.6116401,13.373047 6.0908927,11.22896 6.9251874,8.4275182 9.3020697,8.6035156 Z"
     id="path2-3" />
</svg>

<?xml version="1.0" encoding="UTF-8"?><!DOCTYPE svg PUBLIC "-//W3C//DTD SVG 1.1//EN"
        "http://www.w3.org/Graphics/SVG/1.1/DTD/svg11.dtd">
<svg xmlns:xlink="http://www.w3.org/1999/xlink" xmlns="http://www.w3.org/2000/svg"
     version="1.1" width="16px" height="16px"
     viewBox="0 0 24 24">
    <path fill="#C792EA"
          d="M12,15.5A3.5,3.5 0 0,1 8.5,12A3.5,3.5 0 0,1 12,8.5A3.5,3.5 0 0,1 15.5,12A3.5,3.5 0 0,1 12,15.5M19.43,12.97C19.47,12.65 19.5,12.33 19.5,12C19.5,11.67 19.47,11.34 19.43,11L21.54,9.37C21.73,9.22 21.78,8.95 21.66,8.73L19.66,5.27C19.54,5.05 19.27,4.96 19.05,5.05L16.56,6.05C16.04,5.66 15.5,5.32 14.87,5.07L14.5,2.42C14.46,2.18 14.25,2 14,2H10C9.75,2 9.54,2.18 9.5,2.42L9.13,5.07C8.5,5.32 7.96,5.66 7.44,6.05L4.95,5.05C4.73,4.96 4.46,5.05 4.34,5.27L2.34,8.73C2.21,8.95 2.27,9.22 2.46,9.37L4.57,11C4.53,11.34 4.5,11.67 4.5,12C4.5,12.33 4.53,12.65 4.57,12.97L2.46,14.63C2.27,14.78 2.21,15.05 2.34,15.27L4.34,18.73C4.46,18.95 4.73,19.03 4.95,18.95L7.44,17.94C7.96,18.34 8.5,18.68 9.13,18.93L9.5,21.58C9.54,21.82 9.75,22 10,22H14C14.25,22 14.46,21.82 14.5,21.58L14.87,18.93C15.5,18.67 16.04,18.34 16.56,17.94L19.05,18.95C19.27,19.03 19.54,18.95 19.66,18.73L21.66,15.27C21.78,15.05 21.73,14.78 21.54,14.63L19.43,12.97Z"/>
</svg>
